X:1
T:Title
%%score { 1 | 2 }
L:1/8
Q:1/4=104
M:6/8
K:Bb
V:1 treble nm="Grand Piano"
V:2 bass 
V:1
 [DF]2 [DB] [Ec]2 [Fd] | [Ec]3 [DB]2 [^FA] | G2 c B2 G | [DF]3- [DF]2 [DF] | %4
w: Charles~D.~Tillman * * *||||
 [DF]2 [DF] [EG]2 [DF] | E3 E2 E | c2 c d2 c | [DF]6 | [DF]2 [DB] [Ec]2 [Fd] | [Ec]3 [DB]2 [FA] | %10
w: ||||||
 [EG]2 [EG] [Gc]2 [Gd] | [Ge]3- [Ge]2 [Ge] | [Ge]2 [Fe] d2 c | d3 [DF]3 | [DB]2 [FB] [Ec]2 [EF] | %15
w: |||||
 [DB]6 | [Fd]3 [Fd]3 | [Fc]3 [FB]3 | B2 c B2 G | [DB]6 | [Fd]3 [Fd]3 | [Ec]3 [DB]3 | %22
w: |||||||
 [=Ec]2 [Ed] [Ec]2 [EG] | c6 | d3 d3 | c3 B3 | B2 B [Gc]2 [G_d] | [^Fd]6 | [Ge]2 [Ge] d2 c | %29
w: |||||||
 d3 .[DF]3 | [FB]2 [FB] [Ec]2 [EF] | [DB]6 |] %32
w: |||
V:2
 [B,,B,]2 [B,,B,] [B,,F,]2 [B,,F,] | [B,,B,]3 [B,,B,]2 [D,A,] | [E,B,]2 [E,G,E] [E,G,E]2 [E,B,E] | %3
 [B,,B,]3- [B,,B,]2 [B,,B,] | [B,,B,]2 [B,,B,] [B,,B,]2 [B,,B,] | [F,A,C]3 [F,A,C]2 [F,A,C] | %6
 [F,A,E]2 [F,A,E] [F,B,F]2 [F,A,E] | [B,,B,]6 | [B,,B,]2 [B,,B,] [B,,F,]2 [B,,F,] | %9
 [B,,F,]3 [B,,F,]2 [D,B,] | [E,B,]2 [E,B,] [E,B,]2 [D,=B,] | [C,C]3- [C,C]2 [C,C] | %12
 [C,C]2 [C,A,][K:treble] [F,A,F]2 [F,A,F] | [B,F]3[K:bass] [B,,B,]3 | %14
 [B,,B,]2 [D,B,] [F,A,]2 [F,C] | [B,,B,]6 | [B,,B,]3 [B,,B,]3 | [C,A,]3 [D,B,]3 | %18
 [E,G,E]2 [E,G,E] [E,G,E]2 [E,E] | [B,,B,]6 | [B,,B,]3 [B,,B,]3 | [F,A,]3 [G,B,]3 | %22
 [C,B,]2 [C,B,] [C,B,]2 [C,B,] | [F,A,E]6 | [B,F]3 [B,F]3 | [F,A,E]3 [G,B,D]3 | %26
 [G,B,E]2 [G,B,E] [E,B,]2 [E,G,] | [D,A,]6 | [C,C]2 [C,C][K:treble] [F,B,F]2 [F,A,F] | %29
 [B,F]3[K:bass] .[B,,B,]3 | [D,B,]2 [D,B,] [F,A,]2 [F,C] | [B,,B,]6 |] %32

